X: 1
T: Semper Paratus
P: piffero primo a0707
O: Francis van Boskerck
%R: march
F: http://ancients.sudburymuster.org/mus/col/pdf/serviceF.pdf
Z: 2020 John Chambers <jc:trillian.mit.edu>
M: 4/4
L: 1/4
K: G
D |\
GG GA | BB Bc | dB GA | B3 B |\
cB Ad | BA GB | BA AE | A3 D |\
GG GA | BB Bc | dB GB | d3 B |
cB Ad | BA GA | dB GA | Gz z |: z |\
G2 G>G | GD GB | d2- d2- | d2 d2 |\
e3 d | c2 e2 | d2- d2- | d2 B2 |
c3 B | A2 d2 | B3 A | G2 B2 |\
A2 d2 | c2 e2 | d2- d2- | dz z2 |\
G2 G>G | GD GB | d2- d2- | d2 d2 |
e3 d | c2 e2 | d2- d2- | d2 B2 |\
c3 B | A2 d2 | B3 A | G2 A2 |\
B d2 B | G2 A2 | G2- G2- | Gz z :|
